X:067
T:Hunting the Hare Jig
M:6/8
L:1/8
K:G
g2 G Bcd | eag fed | g2 G Bcd | eaf g3 |
g2 G Bcd | eag fed | g2 G Bcd | eaf g2 a ||
bag bag | bag bag | afg afg | ac'b agf |
g2 G Bcd | eag fed | g2 G Bcd | eaf g3 ||
